**kern	**silbe
*ICvox	*
*d:	*
*M4/4	*
*clefF4	*
r;	.
r;	.
=1	=1
8D	We
4E	don't
4F	need
4.E	no
=2	=2
4D	ed-
8E	-u-
4F	-ca-
4.E	-tion
=3	=3
1r	.
=4	=4
1r	.
=5	=5
8D	We
4E	don't
4F	need
4.E	no
=6	=6
4D	thought
8E	con-
4.F	-trol
4r	.
=7	=7
1r	.
=8	=8
2r	.
4.r	.
8AA	No
=9	=9
4D	dark
8E	sar-
4F	-ca-
4.E	-sm
=10	=10
4D	in
8E	the
4F	class
4.E	room
=11	=11
1r	.
=12	=12
1r	.
=13	=13
4D	Tea-
8E	-cher
4F	leave
4.E	them
=14	=14
4D	kids
8E	a-
4.F	-lone
4r	.
=15	=15
1r	.
=16	=16
1r	.
=17	=17
2r	.
4A	Hey
4r	.
=18	=18
16F	tea-
16F	-cher
8r	.
4r	.
8A	leave
8G	them
8F	kids
16G	a-
[16F	-lone
=19	=19
4F]	_
4r	.
2r	.
=20	=20
1r	.
=21	=21
4r	.
8F	All
16F	in
8.F	all
8F	it's
8F	just
8F	a-
=22	=22
4r	.
16E	-no-
8.E	-ther
6E	brick
6D	in
6C	the
=23	=23
4D	wall
4r	.
2r	.
=24	=24
1r	.
=25	=25
4r	.
8F	All
16F	in
8.F	all
8F	you're
8F	just
8F	a
=26	=26
4r	.
16E	no-
8.E	-ther
6E	brick
6D	in
6C	the
=27	=27
4D	wall
4r	.
2r	.
=28	=28
1r	.
=29	=29
8d	We
4e	don't
4f	need
4.e	no
=30	=30
4d	ed-
8e	-u-
4f	-ca-
4.e	-tion
=31	=31
1r	.
=32	=32
1r	.
=33	=33
8d	We
4e	don't
4f	need
4.e	no
=34	=34
4d	thought
8e	con-
4.f	-trol
4r	.
=35	=35
1r	.
=36	=36
2r	.
4.r	.
8A	No
=37	=37
4d	dark
8e	sar-
4f	-ca-
4.e	-sm
=38	=38
4d	in
8e	the
4f	class
4.e	room
=39	=39
1r	.
=40	=40
1r	.
=41	=41
8d	Tea-
4e	-chers
4f	leave
4.e	them
=42	=42
4d	kids
8e	a-
4.f	-lone
4r	.
=43	=43
1r	.
=44	=44
1r	.
=45	=45
2r	.
4a	Hey
4r	.
=46	=46
8a	tea-
8a	-cher
4r	.
8a	leave
8g	those
8f	kids
16g	a-
[16f	-lone
=47	=47
4f]	_
4r	.
2r	.
=48	=48
1r	.
=49	=49
4r	.
8f	All
16f	in
8.f	all
8f	it's
8f	just
8f	a-
=50	=50
4r	.
16e	-no-
8.e	-ther
6e	brick
6d	in
6c	the
=51	=51
4d	wall
4r	.
2r	.
=52	=52
1r	.
=53	=53
4r	.
8f	All
16f	in
8.f	all
8f	you're
8f	just
8f	a
=54	=54
4r	.
16e	no-
8.e	-ther
6e	brick
6d	in
6c	the
=55	=55
4d	wall
4r	.
2r	.
=56	=56
1r	.
=57	=57
1r	.
=58	=58
1r	.
=59	=59
1r	.
=60	=60
1r	.
=61	=61
1r	.
=62	=62
1r	.
=63	=63
1r	.
=64	=64
1r	.
=65	=65
1r	.
=66	=66
1r	.
=67	=67
1r	.
=68	=68
1r	.
=69	=69
1r	.
=70	=70
1r	.
=71	=71
1r	.
=72	=72
1r	.
=73	=73
1r	.
=74	=74
1r	.
=75	=75
1r	.
=76	=76
1r	.
=77	=77
1r	.
=78	=78
1r	.
=79	=79
1r	.
=80	=80
1r	.
=81	=81
1r	.
=82	=82
1r	.
=83	=83
1r	.
=84	=84
1r	.
=85	=85
1r	.
=86	=86
1r	.
=87	=87
1r	.
=88	=88
1r	.
=89	=89
1r	.
=90	=90
1r	.
=91	=91
1r	.
=92	=92
1r	.
=93	=93
1r	.
=94	=94
1r	.
=95	=95
1r	.
=96	=96
1r	.
r;	.
r;	.
*-	*-
!!!ENC: Nathaniel Condit-Schultz
!!!MBID: 10acbb87-d5f1-432e-bdb4-db0d93d223b0
